X:6492
T:The Ashplant
O:england
C:Trad
R:Reel
M:C
K:GDor
L:1/8
dGGG dcBc|dGGG FGBc|Rd2 dc dfga|bgfd Rc2 Bc :||: Rd2 bd c'dbd | Rd2 bd d
cBc|
|1 Rd2  bd c'bga | bgfd c2 Bc :|2 dfga Rb2 ga | bgfd Rc2 Bc || d4


